CSETWebApi/CSETWeb_Api/CSETWeb_ApiCore/Diagram/src/main/webapp/img/lib/ibm/infrastructure/channels.svg

<svg xmlns="http://www.w3.org/2000/svg" viewBox="0 0 60 59.7"><ellipse cx="30" cy="29.9" rx="30" ry="29.9" fill="#89c540"/><path d="M18.1 30.8v-.3h-6.8c.1 2.1.5 4.2 1.2 6.2H19c-.6-2-.9-3.9-.9-5.9zm0-1.5c.1-2.2.6-4.4 1.3-6.5h-6.8c-.8 2.1-1.2 4.3-1.3 6.5h6.8zm1.7-7.7c.5-1.4 1.2-2.8 1.9-4.2l1-1.8h-5.6l-.4.4c-1.6 1.6-2.8 3.5-3.8 5.5h6.9zm2.9-3.6L21 21.6h8.4v-5.9h-5.3a17.61 17.61 0 0 0-1.4 2.3zm-2.1 4.8c-.8 2.1-1.2 4.3-1.4 6.5h10.2v-6.5h-8.8zm-1.4 7.6v.3c0 2 .3 4 .9 5.9h9.3v-6.2H19.2zm4.3-15.9c1-1.4 2.1-2.7 3.4-3.9-3.1.5-6 1.9-8.5 3.9h5.1zm5.9-4c-1.3.4-3 1.9-4.5 4.1h4.5v-4.1zm.6-1.3c5.3 0 10.3 2.2 14 6.1 7.8 8.2 7.8 21 0 29.2-3.5 3.7-8.3 5.8-13.4 6h-.2c-.1 0-.3.1-.4.1h-.5c-.2 0-.4 0-.7-.1-4.9-.3-9.5-2.4-12.9-6-7.8-8.2-7.8-21 0-29.2 3.7-3.9 8.8-6.1 14.1-6.1zm3.7 1.5c1.3 1.1 2.4 2.3 3.3 3.8h4.6c-2.3-1.9-5-3.1-7.9-3.8zm4 5l.2.3c1 1.8 1.8 3.7 2.5 5.6H47c-.9-2-2.2-3.9-3.7-5.5l-.4-.4h-5.2zm-.9.8c-.2-.3-.3-.6-.5-.9h-5.8v5.9H39c-.5-1.7-1.3-3.4-2.2-5zm-1.2-2c-1.5-2.1-3.2-3.7-5-4.1v4.1h5zm5.1 8.3a24.06 24.06 0 0 1 1.2 6.5h6.8c-.1-2.2-.5-4.4-1.3-6.5h-6.7zm.1 6.5c-.2-2.2-.6-4.4-1.3-6.5h-8.9v6.5h10.2zm1.2 1.1c0 2.1-.4 4.2-1.1 6.2h6.7c.7-2 1.1-4.1 1.2-6.2H42zm-1.5 7.4c-.8 2.1-1.8 4.1-3 5.9h5.7l.1-.1c1.6-1.7 2.9-3.7 3.9-5.8h-6.7zm-3.7 7.1c-1 1.5-2.2 2.9-3.5 4.2 3.2-.6 6.2-2 8.7-4.2h-5.2zm-6.2 4.4c1.4-.3 3.3-2 5-4.4h-5v4.4zm5.7-5.6c1.2-1.9 2.2-3.9 3-6h-8.8v5.9l5.8.1zm3.5-7.1c.7-2 1.1-4.1 1.1-6.2H30.6v6.2h9.2zM26.2 48.9c-1.3-1.2-2.5-2.6-3.4-4.1h-4.7c2.3 2.1 5.1 3.5 8.1 4.1zm-4.1-5.2c-1.1-1.9-2-3.9-2.7-5.9h-6.5c.9 2.2 2.2 4.1 3.9 5.8l.1.1h5.2zm-1.6-5.9c.7 2.1 1.6 4.1 2.8 5.9h6.1v-5.9h-8.9zm3.5 7.1c1.6 2.4 3.4 4 4.9 4.4h.5v-4.4H24z" fill="#fff"/></svg>

<?xml version="1.0" encoding="utf-8"?>
<!-- Generator: Adobe Illustrator 21.1.0, SVG Export Plug-In . SVG Version: 6.00 Build 0)  -->
<svg version="1.1" id="Layer_1" xmlns="http://www.w3.org/2000/svg" xmlns:xlink="http://www.w3.org/1999/xlink" x="0px" y="0px"
	 viewBox="0 0 60 59.7" style="enable-background:new 0 0 60 59.7;" xml:space="preserve">
<style type="text/css">
	.st0{fill:#89C540;}
	.st1{fill:#FFFFFF;}
</style>
<title>INDIVIDUAL ICONS</title>
<ellipse class="st0" cx="30" cy="29.9" rx="30" ry="29.9"/>
<path class="st1" d="M18.1,30.8c0-0.1,0-0.2,0-0.3h-6.8c0.1,2.1,0.5,4.2,1.2,6.2H19C18.4,34.7,18.1,32.8,18.1,30.8L18.1,30.8z
	 M18.1,29.3c0.1-2.2,0.6-4.4,1.3-6.5h-6.8c-0.8,2.1-1.2,4.3-1.3,6.5H18.1L18.1,29.3z M19.8,21.6c0.5-1.4,1.2-2.8,1.9-4.2
	c0.3-0.6,0.7-1.2,1-1.8h-5.6l-0.4,0.4c-1.6,1.6-2.8,3.5-3.8,5.5H19.8z M22.7,18c-0.6,1.2-1.2,2.4-1.7,3.6h8.4v-5.9h-5.3
	C23.6,16.4,23.1,17.2,22.7,18L22.7,18z M20.6,22.8c-0.8,2.1-1.2,4.3-1.4,6.5h10.2v-6.5H20.6z M19.2,30.4c0,0.1,0,0.2,0,0.3l0,0
	c0,2,0.3,4,0.9,5.9h9.3v-6.2H19.2z M23.5,14.5c1-1.4,2.1-2.7,3.4-3.9c-3.1,0.5-6,1.9-8.5,3.9H23.5z M29.4,10.5
	c-1.3,0.4-3,1.9-4.5,4.1h4.5L29.4,10.5L29.4,10.5z M30,9.2L30,9.2c5.3,0,10.3,2.2,14,6.1c7.8,8.2,7.8,21,0,29.2
	c-3.5,3.7-8.3,5.8-13.4,6h-0.2c-0.1,0-0.3,0.1-0.4,0.1c-0.2,0-0.3,0-0.5,0c-0.2,0-0.4,0-0.7-0.1c-4.9-0.3-9.5-2.4-12.9-6
	c-7.8-8.2-7.8-21,0-29.2C19.6,11.4,24.7,9.2,30,9.2z M33.7,10.7c1.3,1.1,2.4,2.3,3.3,3.8h4.6C39.3,12.6,36.6,11.4,33.7,10.7
	L33.7,10.7z M37.7,15.7l0.2,0.3c1,1.8,1.8,3.7,2.5,5.6H47c-0.9-2-2.2-3.9-3.7-5.5l-0.4-0.4H37.7L37.7,15.7z M36.8,16.5
	c-0.2-0.3-0.3-0.6-0.5-0.9h-5.8v5.9h8.5C38.5,19.8,37.7,18.1,36.8,16.5L36.8,16.5z M35.6,14.5c-1.5-2.1-3.2-3.7-5-4.1v4.1H35.6z
	 M40.7,22.8c0.7,2.1,1.1,4.3,1.2,6.5h6.8c-0.1-2.2-0.5-4.4-1.3-6.5H40.7L40.7,22.8z M40.8,29.3c-0.2-2.2-0.6-4.4-1.3-6.5h-8.9v6.5
	H40.8L40.8,29.3z M42,30.4c0,2.1-0.4,4.2-1.1,6.2h6.7c0.7-2,1.1-4.1,1.2-6.2H42z M40.5,37.8c-0.8,2.1-1.8,4.1-3,5.9h5.7l0.1-0.1
	c1.6-1.7,2.9-3.7,3.9-5.8H40.5L40.5,37.8z M36.8,44.9c-1,1.5-2.2,2.9-3.5,4.2c3.2-0.6,6.2-2,8.7-4.2H36.8z M30.6,49.3
	c1.4-0.3,3.3-2,5-4.4h-5V49.3z M36.3,43.7c1.2-1.9,2.2-3.9,3-6h-8.8v5.9L36.3,43.7z M39.8,36.6c0.7-2,1.1-4.1,1.1-6.2H30.6v6.2H39.8
	z M26.2,48.9c-1.3-1.2-2.5-2.6-3.4-4.1h-4.7C20.4,46.9,23.2,48.3,26.2,48.9z M22.1,43.7c-1.1-1.9-2-3.9-2.7-5.9h-6.5
	c0.9,2.2,2.2,4.1,3.9,5.8l0.1,0.1L22.1,43.7z M20.5,37.8c0.7,2.1,1.6,4.1,2.8,5.9h6.1v-5.9L20.5,37.8L20.5,37.8z M24,44.9
	c1.6,2.4,3.4,4,4.9,4.4h0.5v-4.4H24z"/>
</svg>
